!!!COM: Beethoven, Ludwig van
!!!CDT: 1770///-1827///
!!!OTL: Piano Sonata no. 18 in E-flat major
!!!OTP: the hunt
!!!ODT: 1794///-1795///
!!!OPS: 31
!!!ONM: 3
!!!OMV: 1
!!!OMD: Allegro
!!!AGN: Sonata
**kern	**kern	**dynam
*staff2	*staff1	*staff1/2
*Ipiano	*Ipiano	*Ipiano
*>[A,A,B]	*>[A,A,B]	*>[A,A,B]
*>norep[A,B]	*>norep[A,B]	*>norep[A,B]
*>A	*>A	*>A
*clefF4	*clefG2	*clefG2
*k[b-e-a-]	*k[b-e-a-]	*k[b-e-a-]
*E-:	*E-:	*E-:
*M3/4	*M3/4	*M3/4
*MM120	*MM120	*MM120
=1-	=1-	=1-
*	*^	*
2AA-\ 2E-\ 2F\ 2A-\	(8.cc/L	2c\ 2e-\	p
.	16f/Jk	.	.
.	4f/)	.	.
4r	4r	4r	.
=2	=2	=2	=2
2AA-\ 2E-\ 2F\ 2A-\	(8.cc/L	2c\ 2e-\	.
.	16f/Jk)	.	.
.	4f/	.	.
4r	4r	4r	.
*	*v	*v	*
=3	=3	=3
(4AAA-'/ 4EE-'/	(4c'/ 4e-'/ 4f'/	.
4AAA-'/ 4EE-'/	4c'/ 4e-'/ 4f'/	.
4AAA-'/) 4EE-'/	4c'/) 4e-'/ 4f'/	.
=4	=4	=4
2.AAAn/ 2.EE-/	2.c/ 2.e-/ 2.g-/	.
=5	=5	=5
4AAn'\ 4E-'\ (4G-'\	(4c'/ 4e-'/ 4g-'/	.
4AA'\ 4E-'\ 4G-'\	4c'/ 4e-'/ 4g-'/	.
4AA'\ 4E-'\ 4G-'\)	4c'/) 4e-'/ 4g-'/	.
=6	=6	=6
2.BB-;\ 2.E-;\ 2.Gn;\	2.B-;/ 2.e-;/ 2.gn;/	.
=7	=7	=7
*	*^	*
4BBB-/ 4BB-/	(8g/L	4A-\ 4d\	p
.	8f/J)	.	.
4BBB-/ 4BB-/	(16f/LL	4A-\ 4d\	.
.	16g/	.	.
.	16f/	.	.
.	16en/JJ	.	.
4BBB-/ 4BB-/	(8f/L)	4A-\ 4d\	.
.	8g/J)	.	.
*	*v	*v	*
=8	=8	=8
4EE-/ 4E-/	16G/ (16e-/LL	.
.	16f/	.
.	16e-/	.
.	16d/JJ)	.
4r	12e-'/L	.
.	12f'/	.
.	12g'/J	.
4r	12a-'/L	.
.	12b-'/	.
.	12cc'/J	.
=9	=9	=9
2.r	12dd'\L	.
.	12ee-'\	.
.	12ff'\J	.
.	12ff#'\L	.
.	12gg'\	.
.	12aa-'\J	.
.	12aan'\L	.
.	12bb-'\	.
.	12bbn'\J	.
*clefG2	*	*
=10	=10	=10
2a-\ 2cc\ 2ee-\	(8.ccc\L	.
.	16ffn\Jk)	.
.	4ff\	.
4r	4r	.
*clefF4	*	*
=11	=11	=11
.	(bnq/	.
2A-\ 2c\ 2e-\	(8.cc/L)	.
.	16f/Jk)	.
.	4f/	.
4r	4r	.
*	*clefF4	*clefF4
=12	=12	=12
(4AAA-'/ 4AA-'/	4C'\ 4E-'\ (4F'\	.
4AAA-'/ 4AA-'/	4C'\ 4E-'\ 4F'\	.
4AAA-'/) 4AA-'/	4C'\ 4E-'\ 4F'\)	.
=13	=13	=13
2.AAAn/ 2.AAn/	2.C\ 2.E-\ 2.G-\	.
*clefG2	*clefG2	*clefG2
=14	=14	=14
(4an'/	4cc'\ 4ee-'\ (4gg-'\	<
4a'/	4cc'\ 4ee-'\ 4gg-'\	.
4a'/)	4cc'\ 4ee-'\ 4gg-'\)	.
=15	=15	=15
2.b-;\	2.ee-;\ 2.ggn;\	.
*clefF4	*	*
=16	=16	=16
*	*^	*
4BBB-/ 4BB-/	(8g/L	4A-\ 4d\	p
.	8f/J)	.	.
4BBB-/ 4BB-/	(16f/LL	4A-\ 4d\	.
.	16g/	.	.
.	16f/	.	.
.	16en/JJ)	.	.
4BBB-/ 4BB-/	(8f/L	4A-\ 4d\	.
.	8g/J)	.	.
*	*v	*v	*
=17	=17	=17
8EE-/ 8E-/L	4G/ 4e-/	.
8E-/	.	.
8E-/	4r	.
8E-/	.	.
8E-/	4r	.
8E-/J	.	.
=18	=18	=18
*^	*	*
.	.	(dddq/	.
2.c/ 2.e-/	8E-\L	(8.eee-\L)	.
.	8E-\	.	.
.	.	16aa-\Jk)	.
.	8E-\	4aa-\	.
.	8E-\	.	.
.	8E-\	4r	.
.	8E-\J	.	.
=19	=19	=19	=19
.	.	ddq/	.
2.B-/ 2.d/	8E-\L	(8.ee-\L	.
.	8E-\	.	.
.	.	16g\Jk)	.
.	8E-\	4g/	.
.	8E-\	.	.
.	8E-\	4r	.
.	8E-\J	.	.
=20	=20	=20	=20
4A-/ 4c/	8E-\L	16ee-/LL	.
.	.	16f/JJ	.
.	8E-\	8r	.
4A-/ 4c/	8E-\	16ee-/LL	.
.	.	16f/JJ	.
.	8E-\	8r	.
4A-/ 4c-/	8E-\	16dd/LL	.
.	.	16f/JJ	.
.	8E-\J	8r	.
=21	=21	=21	=21
4G/ 4B-/	8E-\L	16ee-/LL	.
.	.	16e-/JJ	.
.	8E-\	8r	.
4r	8E-\	4r	.
.	8E-\	.	.
4r	8E-\	4r	.
.	8E-\J	.	.
=22	=22	=22	=22
2.c/ 2.e-/	8E-\L	4eee-\	<
.	8E-\	.	.
.	.	dddq/LL	.
.	.	eee-q/JJ	.
.	8E-\	8aa-'\	.
.	8E-\	8r	.
.	8E-\	4r	.
.	8E-\J	.	.
=23	=23	=23	=23
2.B-/ 2.d/	8E-\L	(4ee-\	.
.	8E-\	.	.
.	.	ddq/LL	.
.	.	ee-q/JJ)	.
.	8E-\	8g'/	.
.	8E-\	8r	.
.	8E-\	4r	.
.	8E-\J	.	.
=24	=24	=24	=24
4A-/ 4c/	8E-\L	16ee-/LL	.
.	.	16f/JJ	.
.	8E-\	8r	.
4A-/ 4c/	8E-\	16ee-/LL	.
.	.	16f/JJ	.
.	8E-\	8r	.
4A-/ 4c-/	8E-\	16dd/LL	.
.	.	16f/JJ	.
.	8E-\J	8r	.
*v	*v	*	*
=25	=25	=25
4E-\ 4G\ 4B-\	(16e-/LL	p
.	16f/	.
.	16e-/	.
.	16d/JJ	.
4r	16e-/LL	.
.	16f/	.
.	16g/	.
.	16a-/JJ)	.
8r	8b-'/L	.
8G'\	8g'/J	.
=26	=26	=26
8F'\L	8f'/L	.
8A-'\	8a-'/	.
8D'\	8d'/	.
8F'\	8f'/	.
8BB-\	8B-'/	.
8D'\J	8d'/J	.
=27	=27	=27
4E-\	(16e-/LL	.
.	16f/	.
.	16e-/	.
.	16d/JJ	.
4r	16e-/LL	.
.	16f/	.
.	16g/	.
.	16a-/JJ	.
(16c\LL	16cc/LL	.
16B-\	16b-/	.
16A-\	16a-/	.
16G\JJ)	16g/JJ)	.
=28	=28	=28
8F'\L	8f'/L	.
8A-'\	8a-'/	.
8D'\	8d'/	.
8F'\	8f'/	.
8BB-'\	8B-'/	.
8D'\J	8d'/J	.
=29	=29	=29
8E-'\L	8e-'/L	.
8G'\	8g'/	.
8C'\	8c'/	.
8E-'\	8e-'/	.
8AAn'\	8An'/	.
8C'\J	8c'/J	.
=30	=30	=30
8FF'\L	8F'/L	.
8AAn'\	8An'/	.
8C'\	8c'/	.
8En'\	8en'/	.
8F'\	8f'/	.
8AAn'\J	8An'/J	.
=31	=31	=31
8BB-'\L	8B-'/L	.
8D'\	8d'/	.
8F'\	8f'/	.
8An\	(8an/	<
8B-'\	8b-'/)	.
8A\J	(8a/J	.
=32	=32	=32
8B-'\L	8b-'/L)	.
(8An\	(8an/	.
8B-'\)	8b-'/)	.
(8A\	(8a/	.
8B-'\)	8b-'/)	.
(8B-\J	8b-/J	.
=33	=33	=33
*	*^	*
2AA-\ 2E-\ 2F\ 2A-\)	8.cc-/L	2c-\ 2e-\	p
.	16f/Jk	.	.
.	4f/	.	.
4r	4r	4r	.
=34	=34	=34	=34
2AA-\ 2E-\ 2F\ 2A-\	(8.cc/L	2e-\	.
.	16f/Jk	.	.
.	4f/)	.	.
4r	4r	4r	.
*	*v	*v	*
=35	=35	=35
4A-'\ (4c-'\	(4e-'/ 4f'/	<
4A-'\ 4c-'\	4e-'/ 4f'/	.
4G-'\ 4c-'\)	4e-'/) 4g-'/	.
=36	=36	=36
*	*^	*
2.F\ 2.c-\	2.a-/	(2e-\	>
.	.	4d\)	.
*clefG2	*	*	*
*	*v	*v	*
=37	=37	=37
4a-'\ (4cc-'\	4ee-'\ (4ff'\	<
4a-'\ 4cc-'\	4ee-'\ 4ff'\	.
4g-'\ 4cc-'\)	4ee-'\ 4gg-'\)	.
=38	=38	=38
*	*^	*
2.f/ 2.cc-/	2.aa-/	(2ee-\	>
.	.	4dd\)	.
*clefF4	*	*	*
*	*v	*v	*
=39	=39	=39
4B-'\ (4d-'\	(4f'/ 4gn'/	<
4B-'\ 4d-'\	4f'/ 4g'/	.
4A-'\ 4d-'\)	4f'/) 4a-'/	.
=40	=40	=40
*	*^	*
2.G\ 2.d-\	2.b-/	(2f\	>
.	.	4en\)	.
*clefG2	*	*	*
*	*v	*v	*
=41	=41	=41
4b-'\ (4dd-'\	4ff'\ (4gg'\	<
4b-'\ 4dd-'\	4ff'\ 4gg'\	.
4a-'\ 4dd-'\)	4ff'\ 4aa-'\)	.
=42	=42	=42
*	*^	*
2.g\ 2.dd-\	2.bb-/	(2ff\	>
.	.	4een\)	.
*	*v	*v	*
=43	=43	=43
4r	(4ddd-\	p
4g-/ 4b-/	4een\)	.
4r	4r	.
=44	=44	=44
4r	(4fff\	f
4f'/ 4an'/	4ff\)	f
*clefF4	*	*
4F'\	4r	f
=45	=45	=45
4FF'/	4r	f
4FFF'/	4r	.
4r	8r	.
.	8ff'\	p
=46	=46	=46
16D\LL	4.bb-\	.
16B-\	.	.
16F\	.	.
16B-\JJ	.	.
16D\LL	.	.
16B-\	.	.
16F\	(16aan\LL	.
16B-\JJ	16bb-\JJ	.
16D\LL	8ccc\L	.
16B-\	.	.
16F\	8bb-\J)	.
16B-\JJ	.	.
=47	=47	=47
16D\LL	4.ff\	.
16B-\	.	.
16F\	.	.
16B-\JJ	.	.
16D\LL	.	.
16B-\	.	.
16F\	(16gg\LL	.
16B-\JJ	16ff\JJ	.
16D\LL	8ee-\L	.
16B-\	.	.
16F\	8dd\J)	.
16B-\JJ	.	.
=48	=48	=48
16E-\LL	(16ff#\LL	.
16B-\	16gg\JJ)	.
16G\	8r	.
16B-\JJ	.	.
16E-\LL	(16ff#\LL	.
16B-\	16gg\JJ)	.
16G\	8r	.
16B-\JJ	.	.
16E-\LL	(16dd\LL	.
16Bn\	16ee-\JJ)	.
16G\	8r	.
16B\JJ	.	.
=49	=49	=49
16E-\LL	(16bn\LL	.
16c\	16cc\JJ)	.
16G\	8r	.
16c\JJ	.	.
16E-\LL	4r	.
16c\	.	.
16G\	.	.
16c\JJ	.	.
16En\LL	8r	.
16c\	.	.
16B-\	8ccc'\	.
16c\JJ	.	.
=50	=50	=50
16F\LL	(4.eee-\	.
16c\	.	.
16An\	.	.
16c\JJ	.	.
16F\LL	.	.
16c\	.	.
16A\	16fff\LL	.
16c\JJ	16eee-\JJ	.
16F\LL	8ddd\L	.
16c\	.	.
16A\	8ccc\J)	.
16c\JJ	.	.
=51	=51	=51
16F\LL	(8bb-\L	.
16e-\	.	.
16c\	8aan\	.
16e-\JJ	.	.
16F\LL	8gg\	.
16e-\	.	.
16An\	8ff\	.
16e-\JJ	.	.
16F#\LL	8ee-\	.
16e-\	.	.
16A\	8cc\J)	.
16e-\JJ	.	.
=52	=52	=52
16G\LL	(8b-\L	.
16d\	.	.
16B-\	8dd\	.
16d\JJ	.	.
16E-\LL	8g\	.
16c\	.	.
16G\	8ee-\	.
16c\JJ	.	.
16Fn\LL	8an\	.
16c\	.	.
16An\	8cc\J)	.
16e-\JJ	.	.
=53	=53	=53
4BB-\ 4B-\	(16b-/LL	.
.	16d/	.
.	16f/	.
.	16e-/JJ)	.
4r	(20d/LL	.
.	20e-/	.
.	20f/	.
.	20g/	.
.	20an/JJ)	.
4r	(48b-/LLL	.
.	48a/	.
.	48cc/	.
.	48b-/	.
.	48dd/	.
.	48cc/	.
.	48b-/	.
.	48a/	.
.	48g/	.
.	48f/	.
.	48g/	.
.	48e-/JJJ)	.
=54	=54	=54
2.r	(16d/LL	.
.	16f/	.
.	16e-/	.
.	16d/JJ	.
.	16e-/LL	.
.	16f/	.
.	16g/	.
.	16an/JJ	.
.	16b-/LL	.
.	16a/	.
.	16g/	.
.	16f/JJ	.
=55	=55	=55
2.r	16g\LL	.
.	16an\	.
.	16b-\	.
.	16cc\JJ	.
.	16dd\LL	.
.	16cc\	.
.	16b-\	.
.	16a\JJ	.
.	16b-\LL	.
.	16cc\	.
.	16dd\	.
.	16ee-\JJ	.
=56	=56	=56
2.r	16gg\LL	.
.	16ff\	.
.	16ee-\	.
.	16dd\JJ	.
.	12ff\L	.
.	12ee-\	.
.	12dd\J	.
.	16ee-\LL	.
.	16ff\	.
.	16gg\	.
.	16aan\JJ	.
=57	=57	=57
16D\LL	4.bb-\)	.
16B-\	.	.
16F\	.	.
16B-\JJ	.	.
16D\LL	.	.
16B-\	.	.
16F\	(16aan\LL	.
16B-\JJ	16bb-\JJ)	.
16D\LL	(16aa\LL	.
16B-\	16bb-\)	.
16F\	(16ccc\	.
16B-\JJ	16bb-\JJ)	.
=58	=58	=58
16D\LL	4.ff\	.
16B-\	.	.
16F\	.	.
16B-\JJ	.	.
16D\LL	.	.
16B-\	.	.
16F\	(16een\LL	.
16B-\JJ	16ff\JJ)	.
16D\LL	(16gg\LL	.
16B-\	16ff\)	.
16F\	(16ee-\	.
16B-\JJ	16dd\JJ)	.
=59	=59	=59
16E-\LL	(16ff#\LL	.
16B-\	16gg\)	.
16G\	(16ff#\	.
16B-\JJ	16gg\JJ)	.
16E-\LL	(16ff#\LL	.
16B-\	16gg\)	.
16G\	(16ff#\	.
16B-\JJ	16gg\JJ)	.
16E-\LL	(16dd\LL	.
16Bn\	16ee-\)	.
16G\	(16dd\	.
16B\JJ	16ee-\JJ)	.
=60	=60	=60
16E-\LL	(16bn\LL	.
16c\	16cc\)	.
16G\	(16b\	.
16c\JJ	16cc\JJ)	.
16E-\LL	4r	.
16c\	.	.
16G\	.	.
16c\JJ	.	.
16En\LL	8r	.
16c\	.	.
16B-\	8ccc\	.
16c\JJ	.	.
=61	=61	=61
16F\LL	(4.eee-\	.
16c\	.	.
16An\	.	.
16c\JJ	.	.
16F\LL	.	.
16c\	.	.
16A\	16ddd\LL	.
16c\JJ	16eee-\JJ	.
16F\LL	16fff\LL	.
16c\	16eee-\	.
16A\	16ddd\	.
16c\JJ	16ccc\JJ	.
=62	=62	=62
16F\LL	16bb-\LL	.
16e-\	16aan\	.
16c\	16ddd\	.
16e-\JJ	16ccc\JJ	.
16F\LL	16bb-\LL	.
16e-\	16aa\	.
16An\	16gg\	.
16e-\JJ	16ff\JJ	.
16F#\LL	16ee-\LL	.
16e-\	16dd\	.
16A\	16ee-\	.
16e-\JJ	[16cc\JJ	.
=63	=63	=63
16G\LL	16cc\LL]	.
16d\	16b-\J	.
16B-\	8.dd\J	.
16d\JJ	.	.
16E-\LL	.	.
16c\	16g\LK	.
16G\	8.ee-\J	.
16c\JJ	.	.
16F\LL	.	.
16c\	16an\LK	.
16An\	8cc\J	.
16e-\JJ	.	.
=64	=64	=64
16BB-\LL	8b-\)	.
16D\	.	.
16E-\	8r	.
16F\JJ	.	.
4r	16G/LL	.
.	16An/	.
.	16B-/	.
.	16c/JJ	.
4r	16d/LL	.
.	16e-/	.
.	16f/	.
.	16g/JJ	.
=65	=65	=65
8r	2f^/	.
8AAn/ 8C/ 8F/L	.	.
8AA/ 8C/ 8F/	.	.
8AA/ 8C/ 8F/	.	.
8AA/ 8C/ 8F/	4e-/	.
8AA/ 8C/ 8F/J	.	.
=66	=66	=66
16B-\LL	16d/	.
16d\	16r	.
16e-\	8r	.
16f\JJ	.	.
4r	16g\LL	.
.	16an\	.
.	16b-\	.
.	16cc\JJ	.
4r	16dd\LL	.
.	16ee-\	.
.	16ff\	.
.	16gg\JJ	.
=67	=67	=67
8r	2ff^\	.
8An\ 8c\ 8f\L	.	.
8A\ 8c\ 8f\	.	.
8A\ 8c\ 8f\	.	.
8A\ 8c\ 8f\	4ee-\	.
8A\ 8c\ 8f\J	.	.
=68	=68	=68
8r	4dd\	<
8B-\ 8d\	.	.
8r	4cc\	.
8F#\ 8An\ 8d\	.	.
.	(bnq/LL	.
.	ccq/JJ	.
8r	4b-\)	.
8G\ 8B-\ 8d\	.	.
=69	=69	=69
8r	4a-/	.
8D\ 8F\ 8B-\	.	.
.	gq/LL	.
.	a-q/JJ	.
8r	4g/	.
8E-\ 8G\ 8B-\	.	.
8r	4f/	.
8BBn\ 8D\ 8G\	.	.
=70	=70	=70
8r	4en/	.
8C\ 8En\ 8G\	.	.
8r	4e-/	.
8AAn\ 8C\ 8F\	.	.
.	dq/LL	.
.	e-q/JJ	.
8r	4d/	.
8BB-\ 8D\ 8F\	.	.
=71	=71	=71
8r	4e-/	.
8AAn\ 8C\ 8F\	.	.
.	dq/LL	.
.	e-q/JJ	.
8r	4d/	.
8BB-\ 8D\ 8F\	.	.
8r	4e-/	.
8AA\ 8C\ 8F\	.	.
=72	=72	=72
8BB-\ 8D\ 8F\	16d/LL	p
.	16B-/	.
8r	16F/	.
.	16B-/JJ	.
4r	16d/LL	.
.	16B-/	.
.	16f/	.
.	16d/JJ	.
4r	16b-/LL	.
.	16f/	.
.	16dd/	.
.	16b-/JJ	.
=73	=73	=73
2.r	16f/LL	.
.	16d/	.
.	16b-/	.
.	16f/JJ	.
.	16dd\LL	.
.	16b-\	.
.	16ff\	.
.	16dd\JJ	.
.	16b-\LL	.
.	16f\	.
.	16dd\	.
.	16b-\JJ	.
=74	=74	=74
2.r	16ff\LL	<
.	16dd\	.
.	16bb-\	.
.	16ff\JJ	.
.	16dd\LL	.
.	16b-\	.
.	16ff\	.
.	16dd\JJ	.
.	16bb-\LL	.
.	16ff\	.
.	16ddd\	.
.	16bb-\JJ	.
*clefG2	*	*
=75	=75	=75
8r	8fff'\L	.
8f'\L	8ff'\	.
8b-'\	8bb-'\	.
8dd'\J	8ddd'\	.
8ff'\	8fff'\	.
8r	8f'\J	.
=76	=76	=76
4r	8b-'\L	.
.	8dd'\	.
8r	8ff'\J	.
*clefF4	*	*
8FF'/L	8F'/L	f
8BB-'/	8B-'/	.
8D'/J	8d'/J	.
=77	=77	=77
4F'\	8f'\L	p
.	8b-'\	.
4r	8dd'\	.
.	8ff'\	.
4r	8ee-'\	.
.	8dd'\J	.
=78	=78	=78
8r	[2.cc\	.
8F'\L	.	.
8An'\	.	.
8c'\	.	.
8e-'\	.	.
8FF'\J	.	.
=79	=79	=79
8AAn'/L	2.cc\_	<
8C'/	.	.
8E-'/	.	.
8GG-'/	.	.
8AA'/	.	.
8C'/J	.	.
=80	=80	=80
8E-'/L	2.cc\_	.
8FF'/	.	.
8AAn'/	.	.
8C'/	.	.
8E-'/	.	.
8F'/J	.	.
=81	=81	=81
8An'\L	2cc\]	f
8c'\	.	.
8e-'\	.	.
8F'\	.	.
.	(bnq/LL	.
.	ccq/JJ	.
8e-'\	8ff'\L)	.
8F'\J	8ff'\J	.
=82	=82	=82
4B-\ 4d\	8b-'\L	.
.	(8b-\	.
4r	8bn\	p
.	8cc\	.
4r	8cc#\	.
.	8dd\J)	.
=83	=83	=83
2.G\ 2.B-\	(2.ee-\	.
=84	=84	=84
2.E-\ 2.c\	2.g/)	.
=85	=85	=85
*^	*^	*
4c/	4F\	(8b-/L	4e-\	.
.	.	8an/J	.	.
*	*	*v	*v	*
.	.	b-q/)	.
*	*	*^	*
4c/	4F\	(8a/L	4e-\	.
.	.	8g/	.	.
8c/L	4F\	8a/	4e-\	.
8An/J	.	8cc/J)	.	.
*v	*v	*	*	*
=86	=86	=86	=86
8BB-'\ 8B-'\	8b-'/L	8d\	<
(8B-\L	(8b-/	8r	.
8Bn\	8bn/	4r	.
8c\	8cc/	.	.
8c#\	8cc#/	4r	.
8d\J)	8dd/J)	.	.
*	*v	*v	*
=87	=87	=87
2.e-\	(2.ee-\	f
=88	=88	=88
*^	*^	*
(2G/	2.E-\	(2g/)	2.e-\	>
8A-/L	.	8a-/L	.	.
8B-/J)	.	8b-/J)	.	.
*v	*v	*	*	*
*	*v	*v	*
=89:|!	=89:|!	=89:|!
*>B	*>B	*>B
*	*^	*
2AA-\ 2E-\ 2F\ 2A-\	(8.cc/L	2c\ 2e-\	p
.	16f/Jk)	.	.
.	4f/	.	.
4r	4r	4r	.
=90	=90	=90	=90
2AA-\ 2E-\ 2F\ 2A-\	(8.cc/L	2c\ 2e-\	.
.	16f/Jk	.	.
.	4f/)	.	.
4r	4r	4r	.
*	*v	*v	*
=91	=91	=91
(4AAA-'/ 4CC'/ 4AA-'/	(4F'/ 4c'/ 4e-'/ 4f'/	.
4AAA-'/ 4CC'/ 4AA-'/	4F'/ 4c'/ 4e-'/ 4f'/	.
4AAA-'/) 4CC'/ 4AA-'/	4F'/) 4c'/ 4e-'/ 4f'/	.
=92	=92	=92
2.AAA-/ 2.CC/ 2.AA-/	2.F#/ 2.c/ 2.e-/ 2.f#/	.
=93	=93	=93
(4AAA-'/ 4CC'/ 4AA-'/	(4F#'/ 4c'/ 4e-'/ 4f#'/	.
4AAA-'/ 4CC'/ 4AA-'/	4F#'/ 4c'/ 4e-'/ 4f#'/	.
4AAA-'/) 4CC'/ 4AA-'/	4F#'/) 4c'/ 4e-'/ 4f#'/	.
=94	=94	=94
2.GGG/ 2.CC/ 2.GG/	2.G/ 2.c/ 2.e-/ 2.g/	.
=95	=95	=95
(4GGG'/ 4CC'/ 4GG'/	(4G'/ 4c'/ 4e-'/ 4g'/	.
4GGG'/ 4CC'/ 4GG'/	4G'/ 4c'/ 4e-'/ 4g'/	.
4GGG'/) 4CC'/ 4GG'/	4G'/) 4c'/ 4e-'/ 4g'/	.
=96	=96	=96
4FFF#/ 4CC/ 4FF#/	4An/ 4c/ 4e-/ 4an/	.
4r	(8.eee-\L	f
.	16aan\Jk)	.
4r	4aa\	.
=97	=97	=97
4Fn\ 4Bn\	4r	f
4r	(8.a-/L	.
.	16d/Jk)	.
4r	4d/	.
=98	=98	=98
*^	*	*
4r	4EE-\ 4GG\	2.r	.
(8.G/L	4r	.	.
16C/Jk	.	.	.
4C/)	4r	.	.
=99	=99	=99	=99
4r	(8.FF\L	2.r	.
.	16BBBn\Jk)	.	.
4r	4BBB\	.	.
4D/ 4F/ 4G/	4r	.	.
*v	*v	*	*
=100	=100	=100
8CC/L	2.r	.
8C/	.	.
8C/	.	.
8C/	.	.
8C/	.	.
8C/J	.	.
=101	=101	=101
*^	*	*
.	.	(bbnq/	.
2.An/ 2.c/	8C\L	(8.ccc\L)	p
.	8C\	.	.
.	.	16ff\Jk)	.
.	8C\	4ff\	.
.	8C\	.	.
.	8C\	4r	.
.	8C\J	.	.
=102	=102	=102	=102
.	.	(bnq/	.
2.G/ 2.Bn/	8C\L	(8.cc/L)	.
.	8C\	.	.
.	.	16en/Jk)	.
.	8C\	4e/	.
.	8C\	.	.
.	8C\	4r	.
.	8C\J	.	.
=103	=103	=103	=103
4F/ 4An/	8C\L	16cc/LL	.
.	.	16d/JJ	.
.	8C\	8r	.
4F/ 4A-/	8C\	16cc/LL	.
.	.	16d/JJ	.
.	8C\	8r	.
4F/ 4G/	8C\	16bn/LL	.
.	.	16d/JJ	.
.	8C\J	8r	.
=104	=104	=104	=104
4En/ 4G/	8C\L	(16cc/LL	.
.	.	16c/JJ)	.
.	8C\	8r	.
4r	8C\	4r	.
.	8C\	.	.
4r	8C\	4r	.
.	8C\J	.	.
=105	=105	=105	=105
2.An/ 2.c/	8C\L	4ccc\	.
.	8C\	.	.
.	.	bbnq/LL	.
.	.	cccq/JJ	.
.	8C\	8ff'\	.
.	8C\	8r	.
.	8C\	4r	.
.	8C\J	.	.
=106	=106	=106	=106
2.G/ 2.Bn/	8C\L	(4cc\	.
.	8C\	.	.
.	.	bnq/LL	.
.	.	ccq/JJ)	.
.	8C\	8en'/	.
.	8C\	8r	.
.	8C\	4r	.
.	8C\J	.	.
=107	=107	=107	=107
4F/ 4An/	8C\L	16cc/LL	.
.	.	16d/JJ	.
.	8C\	8r	.
4F/ 4A-/	8C\	16cc/LL	.
.	.	16d/JJ	.
.	8C\	8r	.
4F/ 4G/	8C\	16bn/LL	.
.	.	16d/JJ	.
.	8C\J	8r	.
*v	*v	*	*
=108	=108	=108
8C\ 8En\ 8G\	8c/ 8cc/	.
*	*clefF4	*clefF4
8r	8En\ 8G\L	p
4r	8E\ 8G\	.
.	8E\ 8G\	.
4r	8E\ 8G\	.
.	8E\ 8G\J	.
=109	=109	=109
(16BBn/LL	8F\ 8G\L	.
16DD-/JJ)	.	.
8r	8F\ 8G\	.
16BB/LL	8F\ 8G\	.
16DD-/JJ	.	.
8r	8F\ 8G\	.
16BB/LL	8F\ 8G\	.
16DD-/JJ	.	.
8r	8F\ 8G\J	.
=110	=110	=110
(16C/LL	8En\ 8G\L	.
16CC/JJ)	.	.
8r	8E\ 8G\	.
*clefG2	*	*
(4g/	8E\ 8G\	.
.	8E\ 8G\	.
8cc\)	8E\ 8G\	.
8r	8E\ 8G\J	.
*clefF4	*	*
=111	=111	=111
(16BBn/LL	8F\ 8G\L	.
16DD-/JJ)	.	.
8r	8F\ 8G\	.
(16BB/LL	8F\ 8G\	.
16DD-/JJ)	.	.
8r	8F\ 8G\	.
(16BB/LL	8F\ 8G\	.
16DD-/JJ)	.	.
8r	8F\ 8G\J	.
=112	=112	=112
(16C/LL	8En\ 8G\L	.
16CC/JJ)	.	.
8r	8E\ 8G\	.
*clefG2	*	*
(4g/	8E\ 8G\	.
.	8E\ 8G\	.
8een\)	8E\ 8G\	.
8r	8E\ 8G\J	.
*clefF4	*	*
=113	=113	=113
16BBn/LL	8F\ 8G\L	.
16DD-/JJ	.	.
8r	8F\ 8G\	.
16BB/LL	8F\ 8G\	.
16DD-/JJ	.	.
8r	8F\ 8G\	.
(16BB/LL	8F\ 8G\	.
16DD-/JJ)	.	.
8r	8F\ 8G\J	.
*	*clefG2	*clefG2
=114	=114	=114
*^	*	*
16r	4CC\ 4C\	16r	.
16En/LL	.	8.r	.
16c/	.	.	.
16G/JJ	.	.	.
4r	4r	16en/LL	f
.	.	16c/	.
.	.	16g/	.
.	.	16e/JJ	.
4r	4r	16cc\LL	.
.	.	16g\	.
.	.	16een\	.
.	.	16cc\JJ	.
*v	*v	*	*
=115	=115	=115
8r	2gg\	.
8CC'/L	.	.
8EEn'/	.	.
8GG'/	.	.
8C'/	(4b-\	.
8En'/J	.	.
=116	=116	=116
4F\	8an/)	.
.	8An/ 8c/L	p
4r	8A/ 8c/	.
.	8A/ 8c/	.
4r	8A/ 8c/	.
.	8A/ 8c/J	.
=117	=117	=117
16EEn/LL	8B-/ 8c/L	p
16GGG-/JJ	.	.
8r	8B-/ 8c/	.
(16EE/LL	8B-/ 8c/	.
16GGG-/JJ)	.	.
8r	8B-/ 8c/	.
(16EE/LL	8B-/ 8c/	.
16GGG-/JJ)	.	.
8r	8B-/ 8c/J	.
=118	=118	=118
(16FF/LL	8An/ 8c/L	.
16FFF/JJ)	.	.
8r	8A/ 8c/	.
*clefG2	*	*
(4cc\	8A/ 8c/	.
.	8A/ 8c/	.
8ff\)	8A/ 8c/	.
8r	8A/ 8c/J	.
*clefF4	*	*
=119	=119	=119
(16EEn/LL	8B-/ 8c/L	.
16GGG-/JJ)	.	.
8r	8B-/ 8c/	.
(16EE/LL	8B-/ 8c/	.
16GGG-/JJ)	.	.
8r	8B-/ 8c/	.
(16EE/LL	8B-/ 8c/	.
16GGG-/JJ)	.	.
8r	8B-/ 8c/J	.
=120	=120	=120
(16FF/LL	8An/ 8c/L	.
16FFF/JJ)	.	.
8r	8A/ 8c/	.
*clefG2	*	*
(4cc\	8A/ 8c/	.
.	8A/ 8c/	.
8aan\)	8A/ 8c/	.
8r	8A/ 8c/J	.
*clefF4	*	*
=121	=121	=121
(16EEn/LL	8B-/ 8c/L	.
16GGG-/JJ)	.	.
8r	8B-/ 8c/	.
(16EE/LL	8B-/ 8c/	.
16GGG-/JJ)	.	.
8r	8B-/ 8c/	.
(16EE/LL	8B-/ 8c/	.
16GGG-/JJ)	.	.
8r	8B-/ 8c/J	.
=122	=122	=122
(16FF/LL	16r	.
16FFF/JJ)	16An/LL	f
8r	16f/	.
.	16c/JJ	.
4r	16an/LL	.
.	16f/	.
.	16cc/	.
.	16a/JJ	.
4r	16ff\LL	.
.	16cc\	.
.	16aan\	.
.	16ff\JJ	.
=123	=123	=123
8r	2ccc\	f
8FF'\L	.	.
8AAn'\	.	.
8C'\	.	.
8F'\	4ee-\	.
8An'\J	.	.
=124	=124	=124
4B-\	16dd-\LL	.
.	16f\	.
.	16b-\	.
.	16f\JJ	.
4r	16dd-\LL	.
.	16b-\	.
.	16ff\	.
.	16dd-\JJ	.
4r	16bb-\LL	.
.	16ff\	.
.	16ddd-\	.
.	16bb-\JJ	.
=125	=125	=125
8r	2fff\	f
8BBB-'/L	.	.
8DDn'/	.	.
8FF'/	.	.
8BB-'/	4aa-\	.
8Dn'/J	.	.
=126	=126	=126
4E-\	16gg/LL	.
.	16F/	.
.	16e-/	.
.	16B-/JJ	.
4r	16g/LL	.
.	16e-/	.
.	16b-/	.
.	16g/JJ	.
4r	16ee-\LL	.
.	16b-\	.
.	16gg\	.
.	16ee-\JJ	.
=127	=127	=127
8r	2bb-\	.
8EE-'\L	.	.
8GG'\	.	.
8BB-'\	.	.
8E-'\	(4dd-\	.
8G'\J	.	.
=128	=128	=128
8A-'\L	4cc\)	f
8AA-'\	.	.
8C'\	4r	.
8E-'\	.	.
8A-'\	4cc\	.
8c'\J	.	.
=129	=129	=129
8r	4ccc\	.
8AA-'\L	.	.
8C'\	4r	.
8En'\	.	.
8A-'\	4cc\	.
8c'\J	.	.
=130	=130	=130
8r	4ccc\	.
8AA-'\L	.	.
8C'\	4r	.
8F'\	.	.
8A-'\	4cc\	.
8c'\J	.	.
=131	=131	=131
8r	4ccc\	p
8AA-'\L	.	.
8C'\	4r	.
8F'\	.	.
8A-'\J	8r	.
8r	(8c/	.
=132	=132	=132
4r	8f/L	.
.	8a-/	.
8r	8cc/J)	.
(8AA-\L	8r	.
8C\	4r	.
8F\J	.	.
=133	=133	=133
8A-\)	8r	.
8r	8c/L	.
4r	8f/	.
.	8a-/	.
8r	8cc/J	.
(8AA-/	8r	.
=134	=134	=134
8C\L	4r	.
8F\	.	.
8A-\	8r	.
8AA-\	8c/L	.
8C\	8f/	.
8F\J	8a-/J	.
=135	=135	=135
8A-\L	8cc/L	<
8AA-\	8c/	.
8C\	8f/	.
8F\	8a-/	.
8A-\	8cc/	.
8AA-\J	8c/J	.
=136	=136	=136
8C\L	8f/L	<
8F\	8a-/	.
8A-\	8cc/	.
8AA-\	8c/	.
8C\	8f/	.
[8F\J)	[8a-/J	.
=137	=137	=137
*	*^	*
2AA-\ 2C\ 2F\] 2A-\	8.f/ 8.a-/] 8.cc/L	2c\	>
.	16f/Jk	.	.
.	4f/	.	.
4r	4r	4r	.
*	*v	*v	*
=138	=138	=138
(8.c\L	(8.cc/L	>
16F\Jk)	16f/Jk)	.
4F\	4f/	.
4r	4r	.
=139	=139	=139
(4AAA-'/ 4EE-'/	(4c'/ 4e-'/ 4f'/	.
4AAA-'/ 4EE-'/	4c'/ 4e-'/ 4f'/	.
4AAA-'/) 4EE-'/	4c'/) 4e-'/ 4f'/	.
=140	=140	=140
2.AAAn/ 2.EE-/	2.c/ 2.e-/ 2.g-/	<
=141	=141	=141
4AAn'\ 4E-'\ (4G-'\	(4c'/ 4e-'/ 4g-'/	.
4AA'\ 4E-'\ 4G-'\	4c'/ 4e-'/ 4g-'/	.
4AA'\ 4E-'\ 4G-'\)	4c'/) 4e-'/ 4g-'/	.
=142	=142	=142
2.BB-;\ 2.E-;\ 2.Gn;\	2.B-;/ 2.e-;/ 2.gn;/	.
=143	=143	=143
*	*^	*
4BBB-/ 4BB-/	(8g/L	4A-\ 4d\	p
.	8f/J)	.	.
4BBB-/ 4BB-/	(16f/LL	4A-\ 4d\	.
.	16g/	.	.
.	16f/	.	.
.	16en/JJ)	.	.
4BBB-/ 4BB-/	(8f/L	4A-\ 4d\	.
.	8g/J)	.	.
*	*v	*v	*
=144	=144	=144
4EE-/ 4E-/	16G/ 16e-/LL	.
.	16f/	.
.	16e-/	.
.	16d/JJ	.
4r	12e-'/L	.
.	12f'/	.
.	12g'/J	.
4r	12a-'/L	.
.	12b-'/	.
.	12cc'/J	.
=145	=145	=145
2.r	12dd'\L	.
.	12ee-'\	.
.	12ff'\J	.
.	12ff#'\L	.
.	12gg'\	.
.	12aa-'\J	.
.	12aan'\L	.
.	12bb-'\	.
.	12bbn'\J	.
*clefG2	*	*
=146	=146	=146
2a-\ 2cc\ 2ee-\	(8.ccc\L	.
.	16ffn\Jk)	.
.	4ff\	.
4r	4r	.
*clefF4	*	*
=147	=147	=147
.	(bnq/	.
2A-\ 2c\ 2e-\	(8.cc/L)	.
.	16f/Jk)	.
.	4f/	.
4r	4r	.
*	*clefF4	*clefF4
=148	=148	=148
(4AAA-'/ 4AA-'/	4C'\ 4E-'\ (4F'\	.
4AAA-'/ 4AA-'/	4C'\ 4E-'\ 4F'\	.
4AAA-'/) 4AA-'/	4C'\ 4E-'\ 4F'\)	.
=149	=149	=149
2.AAAn/ 2.AAn/	2.C\ 2.E-\ 2.G-\	.
*clefG2	*clefG2	*clefG2
=150	=150	=150
(4an'/	4cc'\ 4ee-'\ (4gg-'\	<
4a'/	4cc'\ 4ee-'\ 4gg-'\	.
4a'/)	4cc'\ 4ee-'\ 4gg-'\)	.
=151	=151	=151
2.b-;\	2.ee-;\ 2.ggn;\	.
*clefF4	*	*
=152	=152	=152
*	*^	*
4BBB-/ 4BB-/	(8g/L	4A-\ 4d\	p
.	8f/J	.	.
4BBB-/ 4BB-/	(16f/LL)	4A-\ 4d\	.
.	16g/	.	.
.	16f/	.	.
.	16en/JJ	.	.
4BBB-/ 4BB-/	(8f/L)	4A-\ 4d\	.
.	8g/J)	.	.
*	*v	*v	*
=153	=153	=153
8EE-/ 8E-/L	4G/ 4e-/	.
8E-/	.	.
8E-/	4r	.
8E-/	.	.
8E-/	4r	.
8E-/J	.	.
=154	=154	=154
*^	*	*
.	.	(dddq/	.
2.c/ 2.e-/	8E-\L	(8.eee-\L)	.
.	8E-\	.	.
.	.	16aa-\Jk)	.
.	8E-\	4aa-\	.
.	8E-\	.	.
.	8E-\	4r	.
.	8E-\J	.	.
=155	=155	=155	=155
.	.	ddq/	.
2.B-/ 2.d/	8E-\L	(8.ee-\L	.
.	8E-\	.	.
.	.	16g\Jk)	.
.	8E-\	4g/	.
.	8E-\	.	.
.	8E-\	4r	.
.	8E-\J	.	.
=156	=156	=156	=156
4A-/ 4c/	8E-\L	16ee-\LL	.
.	.	16f\JJ	.
.	8E-\	8r	.
4A-/ 4c/	8E-\	16ee-\LL	.
.	.	16f\JJ	.
.	8E-\	8r	.
4A-/ 4c-/	8E-\	16dd\LL	.
.	.	16f\JJ	.
.	8E-\J	8r	.
=157	=157	=157	=157
4G/ 4B-/	8E-\L	16ee-\LL	.
.	.	16e-\JJ	.
.	8E-\	8r	.
4r	8E-\	4r	.
.	8E-\	.	.
4r	8E-\	4r	.
.	8E-\J	.	.
=158	=158	=158	=158
2.c/ 2.e-/	8E-\L	16r	.
.	.	(16eee-\LL	<
.	8E-\	16ddd\	.
.	.	16eee-\JJ	.
.	8E-\	16ddd\LL	.
.	.	16eee-\	.
.	8E-\	16fff\	.
.	.	16eee-\JJ)	.
.	8E-\	4aa-\	.
.	8E-\J	.	.
=159	=159	=159	=159
2.B-/ 2.d/	8E-\L	16r	.
.	.	(16ee-\LL	.
.	8E-\	16dd\	.
.	.	16ee-\JJ	.
.	8E-\	16dd\LL	.
.	.	16ee-\	.
.	8E-\	16ff\	.
.	.	16ee-\JJ)	.
.	8E-\	4g/	.
.	8E-\J	.	.
=160	=160	=160	=160
4A-/ 4c/	8E-\L	16r	.
.	.	(16f\LL	.
.	8E-\	16dd\	.
.	.	16ee-\JJ)	.
4A-/ 4c/	8E-\	16r	.
.	.	16f\LL	.
.	8E-\	16dd\	.
.	.	(16ee-\JJ	.
4A-/ 4c-/	8E-\	16r	.
.	.	16f\LL	.
.	8E-\J	16cc#\	.
.	.	16dd\JJ)	.
*v	*v	*	*
=161	=161	=161
4C\ 4E-\ 4G\	(16e-/ 16ee-/LL	p
.	16f/	.
.	16e-/	.
.	16d/JJ	.
4r	16e-/LL	.
.	16f/	.
.	16g/	.
.	16a-/JJ	.
8r	8b-'/L)	.
8G'\	8g'/J	.
=162	=162	=162
8F'\L	8f'/L	.
8A-'\	8a-'/	.
8D'\	8d'/	.
8F'\	8f'/	.
8BB-'\	8B-'/	.
8D'\J	8d'/J	.
=163	=163	=163
4E-'\	(16e-/LL	.
.	16f/	.
.	16e-/	.
.	16d/JJ	.
4r	16e-/LL	.
.	16f/	.
.	16g/	.
.	16a-/JJ	.
(16c\LL	16cc/LL	.
16B-\	16b-/	.
16A-\	16a-/	.
16G\JJ)	16g/JJ)	.
=164	=164	=164
8F'\L	8f'/L	.
8A-'\	8a-'/	.
8D'\	8d'/	.
8F'\	8f'/	.
8BB-'\	8B-'/	.
8D'\J	8d'/J	.
=165	=165	=165
8E-'\L	8e-'/L	.
8G'\	8g'/	.
8C\	8c'/	.
8E-'\	8e-'/	.
8AAn'\	8An'/	.
8C'\J	8c'/J	.
=166	=166	=166
8FF'\L	8F'/L	.
8AAn'\	8An'/	.
8C'\	8c'/	.
8En'\	8en'/	.
8F'\	8f'/	.
8AA'\J	8A'/J	.
=167	=167	=167
8BB-'\L	8B-'/L	.
8D'\	8d'/	<
8F'\	8f'/	.
8An'\	8an'/	.
8B-'\	8b-'/	.
8d'\J	8dd'/J	.
*clefG2	*	*
=168	=168	=168
8f'/L	8ff'\L	f
8an/J	8aan'\J	.
4b-'/	4bb-'\	.
*clefF4	*	*
4B-'\	4r	f
=169	=169	=169
4BB-'/	4r	f
4BBB-'/	4r	.
4AAA-/	8r	.
.	8bb-'\	p
=170	=170	=170
(8GGG\L	4.eee-\	.
16B-\L	.	.
16e-\JJ	.	.
16G\LL	.	.
16e-\	.	.
16B-\	(16ddd\LL	.
16e-\JJ	16eee-\JJ	.
16G\LL	8fff\L	.
16e-\	.	.
16B-\	8eee-\J)	.
16e-\JJ	.	.
=171	=171	=171
16G\LL	4.bb-\	.
16e-\	.	.
16B-\	.	.
16e-\JJ	.	.
16G\LL	.	.
16e-\	.	.
16B-\	16ccc\LL	.
16e-\JJ	16bb-\JJ	.
16G\LL	8aa-\L	.
16e-\	.	.
16B-\	8gg\J	.
16e-\JJ)	.	.
=172	=172	=172
16A-\LL	(16bbn\LL	.
16e-\	16ccc\JJ)	.
16c\	8r	.
16e-\JJ	.	.
16A-\LL	(16bb\LL	.
16e-\	16ccc\JJ)	.
16c\	8r	.
16e-\JJ	.	.
16A-\LL	(16gg\LL	.
16en\	16aa-\JJ)	.
16c\	8r	.
16e\JJ	.	.
=173	=173	=173
16A-\LL	(16een\LL	.
16f\	16ff\JJ)	.
16c\	8r	.
16f\JJ	.	.
16A-\LL	4r	.
16f\	.	.
16c\	.	.
16f\JJ	.	.
16An\LL	8r	.
16f\	.	.
16e-\	8ff\	.
16f\JJ	.	.
=174	=174	=174
16B-\LL	4.aa-\	.
16f\	.	.
16d\	.	.
16f\JJ	.	.
16F\LL	.	.
16d\	.	.
16B-\	(16bb-\LL	.
16d\JJ	16aa-\JJ	.
16D\LL	8gg\L	.
16B-\	.	.
16F\	8ff\J)	.
16B-\JJ	.	.
=175	=175	=175
16BB-\LL	(8ee-\L	.
16A-\	.	.
16F\	8dd\	.
16A-\JJ	.	.
16BB-\LL	8cc\	.
16A-\	.	.
16F\	8b-\	.
16A-\JJ	.	.
16BBn\LL	8a-\	.
16A-\	.	.
16D\	8f\J)	.
16A-\JJ	.	.
=176	=176	=176
16C\LL	(8e-/L	.
16G\	.	.
16E-\	8g/	.
16G\JJ	.	.
16AA-\LL	8c/	.
16F\	.	.
16C\	8a-/	.
16F\JJ	.	.
16BB-\LL	8d/	.
16F\	.	.
16D\	8f/J)	.
16A-\JJ	.	.
=177	=177	=177
4EE-/ 4E-/	16e-/LL	.
.	16G/	.
.	16B-/	.
.	16A-/JJ	.
4r	(20G/LL	.
.	20A-/	.
.	20B-/	.
.	20c/	.
.	20d/JJ)	.
4r	(48e-/LLL	.
.	48d/	.
.	48f/	.
.	48e-/	.
.	48g/	.
.	48f/	.
.	48e-/	.
.	48d/	.
.	48c/	.
.	48B-/	.
.	48c/	.
.	48A-/JJJ)	.
=178	=178	=178
2.r	(16G/LL	.
.	16B-/	.
.	16A-/	.
.	16G/JJ	.
.	16A-/LL	.
.	16B-/	.
.	16c/	.
.	16d/JJ	.
.	16e-/LL	.
.	16d/	.
.	16c/	.
.	16B-/JJ)	.
=179	=179	=179
2.r	(16c/LL	.
.	16d/	.
.	16e-/	.
.	16f/JJ	.
.	16g/LL	.
.	16f/	.
.	16e-/	.
.	16d/JJ	.
.	16e-/LL	.
.	16f/	.
.	16g/	.
.	16a-/JJ)	.
=180	=180	=180
2.r	(16cc\LL	.
.	16b-\	.
.	16a-\	.
.	16g\JJ	.
.	16a-\LL	.
.	16b-\	.
.	16cc\	.
.	16dd\JJ	.
.	16ee-\LL	.
.	16dd\	.
.	16cc\	.
.	16b-\JJ	.
=181	=181	=181
2.r	16cc\LL	.
.	16dd\	.
.	16ee-\	.
.	16ff\JJ	.
.	16gg\LL	.
.	16ff\	.
.	16ee-\	.
.	16dd\JJ	.
.	16ee-\LL	.
.	16ff\	.
.	16gg\	.
.	16aa-\JJ	.
=182	=182	=182
2.r	16ccc\LL	.
.	16bb-\	.
.	16aa-\	.
.	16gg\JJ	.
.	12bb-\L	.
.	12aa-\	.
.	12gg\J	.
.	16aa-\LL	.
.	16bb-\	.
.	16ccc\	.
.	16ddd\JJ)	.
=183	=183	=183
16G\LL	4.eee-\	.
16e-\	.	.
16B-\	.	.
16e-\JJ	.	.
16G\LL	.	.
16e-\	.	.
16B-\	(16ddd\LL	.
16e-\JJ	16eee-\JJ)	.
16G\LL	(16ddd\LL	.
16e-\	16eee-\)	.
16B-\	(16fff\	.
16e-\JJ	16eee-\JJ)	.
=184	=184	=184
16G\LL	4.bb-\	.
16e-\	.	.
16B-\	.	.
16e-\JJ	.	.
16G\LL	.	.
16e-\	.	.
16B-\	(16aan\LL	.
16e-\JJ	16bb-\JJ)	.
16G\LL	(16ccc\LL	.
16e-\	16bb-\)	.
16B-\	(16aa-\	.
16e-\JJ	16gg\JJ)	.
=185	=185	=185
16A-\LL	(16bbn\LL	.
16e-\	16ccc\)	.
16c\	(16bb\	.
16e-\JJ	16ccc\JJ)	.
16A-\LL	(16bb\LL	.
16e-\	16ccc\)	.
16c\	(16bb\	.
16e-\JJ	16ccc\JJ)	.
16A-\LL	(16gg\LL	.
16en\	16aa-\)	.
16c\	(16gg\	.
16e\JJ	16aa-\JJ)	.
=186	=186	=186
16A-\LL	(16een\LL	.
16f\	(16ff\)	.
16c\	16ee\	.
16f\JJ	16ff\JJ)	.
16A-\LL	4r	.
16f\	.	.
16c\	.	.
16f\JJ	.	.
16An\LL	8r	.
16f\	.	.
16e-\	8ff'\	.
16f\JJ	.	.
=187	=187	=187
16B-\LL	(4.aa-\	.
16f\	.	.
16d\	.	.
16f\JJ	.	.
16F\LL	.	.
16d\	.	.
16B-\	16gg\LL	.
16d\JJ	16aa-\JJ	.
16D\LL	16bb-\LL	.
16B-\	16aa-\	.
16F\	16gg\	.
16B-\JJ	16ff\JJ	.
=188	=188	=188
16BB-\LL	16ee-\LL	.
16A-\	16dd\	.
16F\	16gg\	.
16A-\JJ	16ff\JJ	.
16BB-\LL	16ee-\LL	.
16A-\	16dd\	.
16F\	16cc\	.
16A-\JJ	16b-\JJ	.
16BBn\LL	16a-\LL	.
16A-\	16g\	.
16D\	16a-\	.
16A-\JJ	[16f\JJ)	.
=189	=189	=189
16C\LL	16f/LL]	.
16G\	16e-/J	.
16E-\	8.g/J	.
16G\JJ	.	.
16AA-\LL	.	.
16F\	(16c/LK	.
16C\	8.a-/J)	.
16F\JJ	.	.
16BB-\LL	.	.
16F\	(16d/LK	.
16D\	8f/J)	.
16A-\JJ	.	.
=190	=190	=190
16E-\LL	8e-/	.
16G\	.	.
16A-\	8r	.
16B-\JJ	.	.
4r	16c/LL	.
.	16d/	.
.	16e-/	.
.	16f/JJ	.
4r	16g/LL	.
.	16a-/	.
.	16b-/	.
.	16cc/JJ	.
=191	=191	=191
8r	2b-/	.
8D\ 8F\ 8B-\L	.	.
8D\ 8F\ 8B-\	.	.
8D\ 8F\ 8B-\	.	.
8D\ 8F\ 8B-\	4a-/	.
8D\ 8F\ 8B-\J	.	.
*clefG2	*	*
=192	=192	=192
16e-/LL	16g/	.
16g/	16r	.
16a-/	8r	.
16b-/JJ	.	.
4r	16cc\LL	.
.	16dd\	.
.	16ee-\	.
.	16ff\JJ	.
4r	16gg\LL	.
.	16aa-\	.
.	16bb-\	.
.	16ccc\JJ	.
=193	=193	=193
8r	2bb-\	.
8d/ 8f/ 8b-/L	.	.
8d/ 8f/ 8b-/	.	.
8d/ 8f/ 8b-/	.	.
8d/ 8f/ 8b-/	(4aa-\	.
8d/ 8f/ 8b-/J	.	.
=194	=194	=194
8r	4gg\)	.
8e-/ 8g/	.	.
8r	4ff\	<
8Bn/ 8d/ 8g/	.	.
.	(eenq/LL	.
.	ffq/JJ	.
8r	4ee-\)	.
8c/ 8e-/ 8g/	.	.
*clefF4	*	*
=195	=195	=195
8r	4dd-\	.
8G\ 8B-\ 8e-\	.	.
.	(ccq/LL	.
.	dd-q/JJ	.
8r	4cc\)	.
8A-\ 8c\ 8e-\	.	.
8r	4b-\	.
8En\ 8G\ 8c\	.	.
=196	=196	=196
8r	4an/	.
8F\ 8An\ 8c\	.	.
8r	4a-/	.
8D\ 8F\ 8B-\	.	.
.	(gq/LL	.
.	a-q/JJ	.
8r	4g/)	.
8E-\ 8G\ 8B-\	.	.
=197	=197	=197
8r	4f/	.
8BBn\ 8D\ 8G\	.	.
.	(enq/LL	.
.	fq/JJ	.
8r	4e-/)	.
8C\ 8E-\ 8G\	.	.
8r	4d-/	.
8GG/ 8BB-/ 8E-/	.	.
=198	=198	=198
8r	4c/	.
8C/ 8E-/	.	.
8r	4B-/	.
8EEn/ 8GG/ 8C/	.	.
.	(Anq/LL	.
.	B-q/JJ	.
8r	4An/)	.
8FF/ 8AAn/ 8C/	.	.
=199	=199	=199
8r	4A-/	f
8DD/ 8FF/ 8BB-/	.	.
.	(Gq/LL	.
.	A-q/JJ	.
8r	4G/)	.
8EE-/ 8GG/ 8BB-/	.	.
8r	4a-/	p
8DD/ 8FF/ 8BB-/	.	.
=200	=200	=200
8r	4g/	.
8EE-/ 8GG/ 8BB-/	.	.
8r	4A-/	f
8DD/ 8FF/ 8BB-/	.	.
.	(Gq/LL	.
.	A-q/JJ	.
8r	4G/)	.
8EE-/ 8GG/ 8BB-/	.	.
=201	=201	=201
8r	4a-/	p
8DD/ 8FF/ 8BB-/	.	.
.	(gq/LL	.
.	a-q/JJ	.
8r	4g/)	.
8EE-/ 8GG/ 8BB-/	.	.
8r	4A-/	f
8DD/ 8FF/ 8BB-/	.	.
=202	=202	=202
*^	*	*
16G/LL	8EE-\ 8GG\ 8BB-\	4r	.
16E-/	.	.	.
16BB-/	8r	.	.
16E-/JJ	.	.	.
16G/LL	4r	4r	.
16E-/	.	.	.
16B-/	.	.	.
16G/JJ	.	.	.
4r	4r	16e-/LL	.
.	.	16B-/	.
.	.	16g/	.
.	.	16e-/JJ	.
*v	*v	*	*
=203	=203	=203
2.r	16B-/LL	.
.	16G/	.
.	16e-/	.
.	16B-/JJ	.
.	16g/LL	.
.	16e-/	.
.	16b-/	.
.	16g/JJ	.
.	16e-/LL	.
.	16B-/	.
.	16g/	.
.	16e-/JJ	.
=204	=204	=204
2.r	16b-\LL	<
.	16g\	.
.	16ee-\	.
.	16b-\JJ	.
.	16g\LL	.
.	16e-\	.
.	16b-\	.
.	16g\JJ	.
.	16ee-\LL	.
.	16b-\	.
.	16gg\	.
.	16ee-\JJ	.
*clefG2	*	*
=205	=205	=205
8r	8bb-'\	.
8B-'/L	8b-'\L	.
8e-'/	8ee-'\	.
8g'/	8gg'\	.
8b-'/J	8bb-'\J	.
8r	8B-'/	.
*clefF4	*	*
=206	=206	=206
*^	*	*
4r	4r	8e-'/L	.
.	.	8g'/	.
8r	8r	8b-'/J	.
8BB-/L	8BBB-'\L	4r	.
8E-'/	8EE-'\	.	.
8G/J	8GG'\J	8r	.
*v	*v	*	*
=207	=207	=207
8BB-'\L	8B-'/L	f
8E-'\	8e-'/	.
8G'\	8g'/	.
8B-'\	8b-'/	.
8e-'\	8ee-'/	.
8g'\J	8gg'/J	.
=208	=208	=208
*	*^	*
4r	8bb-'/L	4b-\	.
.	(8aan/	.	.
4r	8ccc/)	2r	.
.	8bb-'/	.	.
4r	8aa-'/	.	.
.	8gg'/J	.	.
*	*v	*v	*
=209	=209	=209
8r	[2.ff\	.
8B-'\L	.	.
8d'\	.	.
8f\	.	.
8a-\	.	.
8BB-'\J	.	.
=210	=210	=210
8D'\L	2.ff\_	.
8F'\	.	.
8A-'\	.	.
8C-'\	.	.
8D'\	.	.
8F'\J	.	.
=211	=211	=211
8A-'\L	2.ff\_	.
8BB-'\	.	.
8D'\	.	.
8F'\	.	.
8A-'\	.	.
8B-'\J	.	.
*clefG2	*	*
=212	=212	=212
8d'/L	2ff\]	f
8f'/	.	.
8a-'/	.	.
8B-'/	.	.
.	(eenq/LL	.
.	ffq/JJ	.
8a-'/	8bb-'\L)	.
8B-'/J	8bb-'\J	.
=213	=213	=213
4e-/ 4g/	8ee-\	.
.	(8ee-\L	p
4r	8een\	.
.	8ff\	.
4r	8ff#\	.
.	8gg\J)	.
=214	=214	=214
2.c/ 2.e-/	(2.aa-\	.
=215	=215	=215
*	*^	*
2.A-/ 2.f/	2.cc/)	2.a-\	.
=216	=216	=216	=216
*^	*	*	*
4B-/ 4f/	4r	(8ee-/L	4a-\	.
.	.	8dd/J	.	.
*	*	*v	*v	*
.	.	(ee-q/)	.
*	*	*^	*
4B-/ 4f/	4r	(8dd/L)	4a-\	.
.	.	8cc/	.	.
8f/L	4B-\	8dd/	4a-\	.
8d/J	.	8ff/J)	.	.
*v	*v	*	*	*
*clefF4	*	*	*
*	*v	*v	*
=217	=217	=217
8E-'\ 8e-'\	8g'\ 8ee-'\	.
(8E-\L	(8e-/L	<
8En\	8en/	.
8F\	8f/	.
8F#\	8f#/	.
8G\J)	8g/J)	.
=218	=218	=218
2.A-\	2.a-/	f
=219	=219	=219
*^	*^	*
(2C/	2.AA-\	(2c/	2.A-\	.
8D-/L	.	8d-/L	.	>
8E-/J)	.	8e-/J)	.	.
*	*	*v	*v	*
=220	=220	=220	=220
2F/ 2A-/	2DD-\ 2AA-\ 2BB-\ 2D-\	(8.f/L	.
.	.	16B-/Jk)	.
.	.	4B-/	.
4r	4r	4r	.
=221	=221	=221	=221
2F/ 2A-/	2DD-\ 2AA-\ 2BB-\ 2D-\	(8.f/L	.
.	.	16B-/Jk)	.
.	.	4B-/	.
4r	4r	4r	.
=222	=222	=222	=222
4F'/ 4A-'/ (4B-'/	4DD-\ 4D-\	2.r	.
4F'/ 4A-'/ 4B-'/	4DD-\ 4D-\	.	.
4F'/ 4A-'/ 4B-'/)	4DD-\ 4D-\	.	.
=223	=223	=223	=223
2.F/ 2.A-/ 2.c-/	2.DDn\ 2.Dn\	2.r	.
*v	*v	*	*
=224	=224	=224
(4d'\	(4f/ 4a-/ 4cc-/	.
4d'\	4f'/ 4a-'/ 4cc-'/	.
4d'\)	4f'/) 4a-'/ 4cc-'/	.
=225	=225	=225
*^	*	*
2r	2e-\	2.g-/ 2.a-/ 2.ccn/	.
4G-/ 4A-/ (4c/	4EE-\ 4E-\	.	.
=226	=226	=226	=226
*	*	*^	*
4A-/ 4d-/)	4FF-\ 4F-\	4r	4r	.
4r	4r	4r	4r	.
4r	4r	4a-/ 4dd-/	4f-\	.
=227	=227	=227	=227	=227
2r	2r	4a-/ 4cc-/ 4ddn/	4fn\	.
.	.	4r	4r	.
4A-/ 4c-/ 4dn/	(4FFn\ 4Fn\	4r	4r	.
*	*	*v	*v	*
=228	=228	=228	=228
4B-/ 4e-/	4GG-\) 4G-\	4r	.
4r	4r	4b-/ 4ee-/	.
4r	4r	4g-\	.
*v	*v	*	*
=229	=229	=229
*	*^	*
4r	4b-/ 4dd-/ 4een/	4gn\	.
4r	4r	4r	.
4GGn\ 4Gn\	(4B-/ 4d-/ 4en/	4r	.
*	*v	*v	*
=230	=230	=230
4AA-\ 4A-\	(4c'/) 4f'/	<
4AA-\ 4A-\	4c'/ 4f'/	.
4AA-\ 4A-\	4c'/) 4f'/	.
=231	=231	=231
2.AAn\ 2.An\	2.c/ 2.e-/ 2.g-/	<
*clefG2	*	*
=232	=232	=232
(4an'/	4cc'\ 4ee-'\ (4gg-'\	.
4a'/	4cc'\ 4ee-'\ 4gg-'\	.
4a'/)	4cc'\ 4ee-'\ 4gg-'\)	.
=233	=233	=233
2.b-;\	2.ee-;\ 2.ggn;\	.
*clefF4	*	*
=234	=234	=234
*	*^	*
4BBB-/ 4BB-/	(8g/L	4A-\ 4d\	p
.	8f/J	.	.
4BBB-/ 4BB-/	(16f/LL)	4A-\ 4d\	.
.	16g/	.	.
.	16f/	.	.
.	16en/JJ)	.	.
4BBB-/ 4BB-/	(8f/L	4A-\ 4d\	.
.	8g/J)	.	.
=235	=235	=235	=235
4EE-/ 4E-/	16e-/LL	4G\	.
.	16f/	.	.
.	16e-/	.	.
.	16d/JJ	.	.
4r	16e-/LL	4r	.
.	16en/	.	.
.	16f/	.	.
.	16f#/JJ	.	<
4r	16g/LL	4r	.
.	16a-/	.	.
.	16an/	.	.
.	16b-/JJ	.	.
*	*v	*v	*
=236	=236	=236
2.r	16bn\LL	.
.	16cc\	.
.	16cc#\	.
.	16dd\JJ	.
.	16ee-\LL	.
.	16een\	.
.	16ff\	.
.	16ff#\JJ	.
.	(20gg\LL	.
.	20aa-\	.
.	20aan\	.
.	20bb-\	.
.	20bbn\JJ)	.
*clefG2	*	*
=237	=237	=237
2a-\ 2cc\ 2ee-\	(8.ccc\L	p
.	16ff\Jk)	.
.	4ff\	.
4r	4r	.
*clefF4	*	*
=238	=238	=238
.	(bnq/	.
2A-\ 2c\ 2e-\	8.cc/L)	.
.	16f/Jk	.
.	4f/	.
4r	4r	.
*	*clefF4	*clefF4
=239	=239	=239
4AAA-'/ 4AA-'/	4C'\ 4E-'\ (4F'\	.
4AAA-'/ 4AA-'/	4C'\ 4E-'\ 4F'\	.
4AAA-'/ 4AA-'/	4C\ 4E-\ 4F\)	.
=240	=240	=240
2.AAAn/ 2.AAn/	2.C\ 2.E-\ 2.G-\	.
*clefG2	*clefG2	*clefG2
=241	=241	=241
4an\ 4cc\	4ee-'\ 4gg-'\	.
4a'\ 4cc'\	4ee-'\ 4gg-'\	.
4a'\ 4cc'\	4ee-'\ 4gg-'\	.
=242	=242	=242
4b-\	4ee-\ 4ggn\	.
4r	4r	.
4an\ 4cc\	[4ee-\ (4ff#\	p
=243	=243	=243
4b-\	4ee-\] 4gg\)	.
4r	4r	.
4an\ 4cc\	[4ee-\ (4ff#\	.
=244	=244	=244
4b-\	4ee-\] [4gg\)	.
4r	(16gg\LL]	<
.	16aa-\	.
.	16bb-\	.
.	16gg\JJ	.
4r	16een\LL	.
.	16ff\	.
.	16gg\	.
.	16ee-\JJ	.
=245	=245	=245
4B-/ 4f/ 4a-/	16cc#\LL	.
.	16dd\	.
.	16ee-\	.
.	16ccn\JJ	.
4r	16an\LL	.
.	16b-\	.
.	16cc\	.
.	16a-\JJ	.
*clefF4	*	*
4BB-\ 4D\ 4A-\	16f#/LL	.
.	16g/	.
.	16a-/	.
.	16fn/JJ)	.
=246	=246	=246
(16E-\LL	4G/ 4e-/	p
16F\	.	.
16E-\	.	.
16D\JJ	.	.
16E-\LL	4r	.
16F\	.	.
16G\	.	.
16A-\JJ)	.	.
8B-'\L	4r	.
8G'\J	.	.
=247	=247	=247
8F'\L	(16b-\LL	.
.	16cc\	.
8A-'\	16b-\	.
.	16an\JJ	.
8D'\	16b-\LL	.
.	16cc\	.
8F'\	16dd\	.
.	16ee-\JJ)	.
8BB-'\	8ff'\L	.
8D'\J	8a-'\J	.
=248	=248	=248
(16E-\LL	4g/	.
16F\	.	.
16E-\	.	.
16D\JJ	.	.
16E-\LL	4r	.
16F\	.	.
16G\	.	.
16A-\JJ	.	.
16c\LL	4r	.
16B-\	.	.
16A-\	.	.
16G\JJ)	.	.
=249	=249	=249
8F'\L	(16bb-\LL	.
.	16ccc\	.
8A-'\	16bb-\	.
.	16aan\JJ	.
8D'\	16bb-\LL	.
.	16ccc\	.
8F'\	16ddd\	.
.	16eee-\JJ	.
8BB-'\	16fff\LL	.
.	16ddd\	.
8D'\J	16bb-\	.
.	16aa-\JJ)	.
=250	=250	=250
8E-'\L	4gg\	p
8BB-'\	.	.
8GG'\	8r	.
8E-'\	8e-'/L	.
8BB-'\	8B-'/	.
8G'\J	8g'/J	.
=251	=251	=251
8E-'\L	8e-'\L	.
8B-'\	8b-'\	.
8G\	8g'\	.
8e-'\	8ee-'\	.
8B-'\	8b-'\	.
8g'\J	8gg'\J	.
*clefG2	*	*
=252	=252	=252
8e-'\L	8ee-'\L	.
8b-'\	8bb-'\	.
8g'\	8gg'\	.
8ee-'\J	8eee-'\J	.
*clefF4	*	*
4BB-'\ 4B-'\	4f'/ 4a-'/ 4dd'/	f
=253	=253	=253
4EE-'/ 4E-'/	4e-'/ 4g'/ 4ee-'/	.
4r	4r	.
4r	4r	.
==	==	==
*-	*-	*-
!!!ENC: Craig Stuart Sapp
!!!END: 2004/11/21/
